X: 1287
T: An Fiach Dubh
R: reel
M: 4/4
K: Edorian
B3c dBAd|Beee dBAd|BEEE GABd|dBAd Beed|
B3c dBAd|Beee dBAF|GGGA FAAA|B2AF E2ed|
B3c dBAd|Beee dBAd|BEEE GABd|dBAd Beed|
B3c dBAd|Beee dBag|f2ef dBAF|B2AF [e3E3]g||
f2ef dBAF|BAFB ABdg|f2ef dBAF|Bcdf e3g|
f2ef dBAF|BAFB AFDF|G3A FAAA|BB[aA][fF] [e3E3]g|
f2ef dBAF|BAFB ABdg|f2ef dBAF|Bcdf efga|
bafe dBAF|BAFB ABd[ge]|f2ef dBAF|B2AF E4||

